ix/card_bold.svg

<svg viewBox="0 0 24 24" fill="none" xmlns="http://www.w3.org/2000/svg" height="1em" width="1em">
  <path d="M22 7.54844C22 8.20844 21.46 8.74844 20.8 8.74844H3.2C2.54 8.74844 2 8.20844 2 7.54844V7.53844C2 5.24844 3.85 3.39844 6.14 3.39844H17.85C20.14 3.39844 22 5.25844 22 7.54844Z" fill="#292D32"/>
  <path d="M2 11.45V16.46C2 18.75 3.85 20.6 6.14 20.6H17.85C20.14 20.6 22 18.74 22 16.45V11.45C22 10.79 21.46 10.25 20.8 10.25H3.2C2.54 10.25 2 10.79 2 11.45ZM8 17.25H6C5.59 17.25 5.25 16.91 5.25 16.5C5.25 16.09 5.59 15.75 6 15.75H8C8.41 15.75 8.75 16.09 8.75 16.5C8.75 16.91 8.41 17.25 8 17.25ZM14.5 17.25H10.5C10.09 17.25 9.75 16.91 9.75 16.5C9.75 16.09 10.09 15.75 10.5 15.75H14.5C14.91 15.75 15.25 16.09 15.25 16.5C15.25 16.91 14.91 17.25 14.5 17.25Z" fill="#292D32"/>
</svg>

<svg viewBox="0 0 24 24" fill="none" xmlns="http://www.w3.org/2000/svg" height="1em" width="1em">
  <path d="M22 7.548c0 .66-.54 1.2-1.2 1.2H3.2c-.66 0-1.2-.54-1.2-1.2v-.01c0-2.29 1.85-4.14 4.14-4.14h11.71c2.29 0 4.15 1.86 4.15 4.15ZM2 11.45v5.01c0 2.29 1.85 4.14 4.14 4.14h11.71c2.29 0 4.15-1.86 4.15-4.15v-5c0-.66-.54-1.2-1.2-1.2H3.2c-.66 0-1.2.54-1.2 1.2Zm6 5.8H6c-.41 0-.75-.34-.75-.75s.34-.75.75-.75h2c.41 0 .75.34.75.75s-.34.75-.75.75Zm6.5 0h-4c-.41 0-.75-.34-.75-.75s.34-.75.75-.75h4c.41 0 .75.34.75.75s-.34.75-.75.75Z" fill="#292D32"/>
</svg>
